icons/speakerphone-off.svg

<svg width="24" height="24" viewBox="0 0 24 24" fill="none" xmlns="http://www.w3.org/2000/svg">
<g clip-path="url(#clip0)">
<path fill-rule="evenodd" clip-rule="evenodd" d="M0.292893 0.292893C0.683417 -0.0976311 1.31658 -0.0976311 1.70711 0.292893L23.7071 22.2929C24.0976 22.6834 24.0976 23.3166 23.7071 23.7071C23.3166 24.0976 22.6834 24.0976 22.2929 23.7071L18.469 19.8832C18.4543 19.891 18.4393 19.8985 18.4242 19.9056C18.0728 20.0702 17.6579 20.0166 17.3598 19.7682L11.638 15H11V20C11 20.5523 10.5523 21 10 21H7C6.44772 21 6 20.5523 6 20V15H3C2.44772 15 2 14.5523 2 14V8C2 7.44772 2.44772 7 3 7H5.58579L0.292893 1.70711C-0.0976311 1.31658 -0.0976311 0.683417 0.292893 0.292893ZM7.58579 9H4V13H9V10.4142L7.58579 9ZM11 12.4142V13H11.5858L11 12.4142ZM9 15H8V19H9V15ZM18.4719 3.11833C18.797 3.29234 19 3.6312 19 4V7.12602C20.7252 7.57006 22 9.13616 22 11C22 12.8065 20.8032 14.3309 19.1615 14.8285C18.8085 14.9355 18.4252 14.8394 18.1644 14.5786L17.2929 13.7071C17.1054 13.5196 17 13.2652 17 13V5.86852L13.1547 8.43205C12.6952 8.7384 12.0743 8.61423 11.768 8.1547C11.4616 7.69517 11.5858 7.0743 12.0453 6.76795L17.4453 3.16795C17.7522 2.96338 18.1467 2.94431 18.4719 3.11833ZM19 9.26756V12.5858L19.091 12.6768C19.6387 12.3196 20 11.7012 20 11C20 10.2597 19.5978 9.61337 19 9.26756Z" fill="black"/>
</g>
<defs>
<clipPath id="clip0">
<rect width="24" height="24" fill="white"/>
</clipPath>
</defs>
</svg>

<svg
  width="24"
  height="24"
  viewBox="0 0 24 24"
  xmlns="http://www.w3.org/2000/svg"
>
  <g clip-path="url(#a)">
    <path
      fill-rule="evenodd"
      clip-rule="evenodd"
      d="M.293.293a1 1 0 0 1 1.414 0l22 22a1 1 0 0 1-1.414 1.414l-3.824-3.824-.045.023a1 1 0 0 1-1.064-.138L11.638 15H11v5a1 1 0 0 1-1 1H7a1 1 0 0 1-1-1v-5H3a1 1 0 0 1-1-1V8a1 1 0 0 1 1-1h2.586L.293 1.707a1 1 0 0 1 0-1.414zM7.586 9H4v4h5v-2.586L7.586 9zM11 12.414V13h.586L11 12.414zM9 15H8v4h1v-4zm9.472-11.882A1 1 0 0 1 19 4v3.126a4.002 4.002 0 0 1 .162 7.702 1 1 0 0 1-.998-.25l-.871-.87A1 1 0 0 1 17 13V5.869l-3.845 2.563a1 1 0 1 1-1.11-1.664l5.4-3.6a1 1 0 0 1 1.027-.05zM19 9.268v3.318l.091.09A2 2 0 0 0 19 9.269z"
    />
  </g>
  <defs>
    <clipPath id="a">
      <rect width="24" height="24" />
    </clipPath>
  </defs>
</svg>
